flaticon/technology/tablet-2.svg

<svg xmlns="http://www.w3.org/2000/svg" width="32" height="32" viewBox="0 0 24 24">
    <path d="M 1.601562 12 L 1.601562 21.601562 L 7.199219 21.601562 L 7.199219 6.398438 L 1.601562 6.398438 Z M 6.398438 20.800781 L 2.398438 20.800781 L 2.398438 16.800781 L 6.398438 16.800781 Z M 6.398438 16 L 2.398438 16 L 2.398438 12 L 6.398438 12 Z M 2.398438 7.199219 L 6.398438 7.199219 L 6.398438 11.199219 L 2.398438 11.199219 Z M 2.398438 7.199219"/>
    <path d="M 20 4.800781 L 20 2.800781 L 19.601562 2.800781 L 19.601562 1.800781 C 19.601562 1.25 19.152344 0.800781 18.601562 0.800781 C 18.046875 0.800781 17.601562 1.25 17.601562 1.800781 L 17.601562 2.800781 L 17.199219 2.800781 L 17.199219 4.800781 L 0 4.800781 L 0 23.199219 L 24 23.199219 L 24 4.800781 Z M 18.398438 1.800781 C 18.398438 1.691406 18.492188 1.601562 18.601562 1.601562 C 18.707031 1.601562 18.800781 1.691406 18.800781 1.800781 L 18.800781 2.800781 L 18.398438 2.800781 Z M 18 3.601562 L 19.199219 3.601562 L 19.199219 13.601562 L 18 13.601562 Z M 17.28125 14.078125 C 17.273438 14.175781 17.289062 14.273438 17.335938 14.363281 L 18.152344 16 L 18.398438 16 L 18.398438 16.800781 L 18.800781 16.800781 L 18.800781 16 L 19.046875 16 L 19.867188 14.363281 C 19.910156 14.273438 19.925781 14.175781 19.917969 14.078125 C 19.96875 13.988281 20 13.882812 20 13.769531 L 20 7.199219 L 21.601562 7.199219 L 21.601562 20.800781 L 8.800781 20.800781 L 8.800781 7.199219 L 17.199219 7.199219 L 17.199219 13.769531 C 17.199219 13.882812 17.230469 13.988281 17.28125 14.078125 Z M 18.601562 15.105469 L 18.246094 14.398438 L 18.953125 14.398438 Z M 23.199219 22.398438 L 0.800781 22.398438 L 0.800781 5.601562 L 17.199219 5.601562 L 17.199219 6.398438 L 8 6.398438 L 8 21.601562 L 22.398438 21.601562 L 22.398438 6.398438 L 20 6.398438 L 20 5.601562 L 23.199219 5.601562 Z M 23.199219 22.398438"/>
</svg>

<svg xmlns="http://www.w3.org/2000/svg" width="32" height="32" viewBox="0 0 24 24">
    <path d="M1.602 12v9.602h5.597V6.398H1.602zm4.796 8.8h-4v-4h4zm0-4.8h-4v-4h4zm-4-8.8h4v4h-4zm0 0"/>
    <path d="M20 4.8v-2h-.398v-1a1 1 0 1 0-2 0v1h-.403v2H0v18.4h24V4.8zm-1.602-3c0-.109.094-.198.204-.198.105 0 .199.09.199.199v1h-.403zM18 3.603h1.2v10H18zm-.719 10.476a.52.52 0 0 0 .055.285L18.152 16h.246v.8h.403V16h.246l.82-1.637a.554.554 0 0 0 .051-.285.627.627 0 0 0 .082-.308V7.2h1.602v13.6H8.8V7.2h8.398v6.57c0 .113.031.218.082.308zm1.32 1.027l-.355-.707h.707zm4.598 7.293H.801V5.602h16.398v.796H8v15.204h14.398V6.398H20v-.796h3.2zm0 0"/>
</svg>
